svgs/obsidian.svg

<svg width="192" height="192" viewBox="0 0 192 192" fill="none" xmlns="http://www.w3.org/2000/svg">
<path d="M56.7275 83.3646L59.8417 60.2904C60.3831 56.2794 62.3624 52.5996 65.4138 49.9314L94.6839 24.3365C98.6561 20.863 104.715 21.3159 108.127 25.338M56.7275 83.3646L39.9625 119.674C38.1514 123.597 38.9414 128.225 41.9515 131.329L70.2834 160.546M56.7275 83.3646C70.533 90.7325 80.4504 107.634 80.4504 127.307C80.4504 139.391 76.2936 152.12 70.2834 160.546M70.2834 160.546C83.8394 161.672 95.7008 161.109 109.822 166.743L119.328 169.562C125.378 171.356 131.636 167.457 132.674 161.249L134.109 152.659C134.312 149.606 135.564 146.052 138.466 140.828M138.466 140.828C141.388 135.568 145.982 128.615 152.86 118.776C154.461 116.485 154.37 113.413 152.621 111.233L148.795 106.463C138.067 92.0362 135.516 81.8261 135.779 61.7721C135.792 60.8022 135.474 59.8506 134.871 59.0896L108.127 25.338M138.466 140.828C128.638 121.004 117.442 111.757 102.479 110.469M108.127 25.338C112.646 39.4221 105.303 50.1261 99.6546 60.2667C89.4877 79.9845 96.2656 91.2518 102.479 110.469M102.479 110.469C95.3301 109.853 88.0055 111.054 78.8752 113.786" stroke="black" stroke-width="12" stroke-linecap="round" stroke-linejoin="round"/>
</svg>

<svg xmlns="http://www.w3.org/2000/svg" width="192" height="192" fill="none" viewBox="0 0 192 192"><path stroke="#000" stroke-linecap="round" stroke-linejoin="round" stroke-width="12" d="m56.727 83.365 3.115-23.075a16.735 16.735 0 0 1 5.572-10.359l29.27-25.594c3.972-3.474 10.031-3.021 13.443 1.001m-51.4 58.027-16.764 36.309a10.446 10.446 0 0 0 1.989 11.655l28.331 29.217M56.727 83.365c13.806 7.368 23.723 24.269 23.723 43.942 0 12.084-4.156 24.813-10.167 33.239m0 0c13.556 1.126 25.418.563 39.539 6.197l9.506 2.819c6.05 1.794 12.308-2.105 13.346-8.313l1.435-8.59c.203-3.053 1.455-6.607 4.357-11.831m0 0c2.922-5.26 7.516-12.213 14.394-22.052a6.292 6.292 0 0 0-.239-7.543l-3.826-4.77c-10.728-14.427-13.279-24.637-13.016-44.69a4.232 4.232 0 0 0-.908-2.683l-26.744-33.752m30.339 115.49c-9.828-19.824-21.024-29.071-35.987-30.359m5.648-85.131c4.519 14.084-2.824 24.788-8.472 34.929-10.167 19.717-3.39 30.985 2.824 50.202m0 0c-7.149-.616-14.474.585-23.604 3.317"/></svg>
